app/style/icons/externalHover.svg

<svg viewBox="0 0 16 16" xmlns="http://www.w3.org/2000/svg"><path d="m0 0h16v16h-16z" fill="none"/><path d="m3.812 3.435h7.822v7.822h-7.822z" fill="#e6eaed"/><g fill="#091440"><path d="m197.426 50.9 5.084-5.081v2.037h.889v-2.667-.889h-3.556v.889h2.037l-5.08 5.081z" transform="translate(-189.803 -42.725)"/><path d="m67.97 50.906v4.06h-9.781v-9.777h4.064v-.889h-4.953v11.556h11.559v-4.95z" transform="translate(-55.263 -42.725)"/></g></svg>

<svg xmlns="http://www.w3.org/2000/svg" viewBox="0 0 16 16"><defs><style>.a{fill:none;}.b{fill:#e6eaed;}.c{fill:#091440;}</style></defs><g transform="translate(1677 1591)"><rect class="a" width="16" height="16" transform="translate(-1677 -1591)"/><g transform="translate(-1673.188 -1587.565)"><rect class="b" width="7.822" height="7.822"/></g><g transform="translate(-1674.963 -1589.425)"><path class="c" d="M197.426,50.9l5.084-5.081v2.037h.889V45.189h0V44.3h-3.556v.889h2.037L196.8,50.27Z" transform="translate(-191.84 -44.3)"/><path class="c" d="M67.97,50.906v4.06H58.189V45.189h4.064V44.3H57.3V55.856H68.859V50.906Z" transform="translate(-57.3 -44.3)"/></g></g></svg>
